X:2464
T:Campbell's Farewell to Redcastle
Z:Footnote: 16 July 1996
M:4/4
L:1/8
Q:212
K:A
e2A3Bc2|d2e2 a2e3dc2 A2A2|Bcd3B=G2|B2A3Bc2|d2e2 a2e3dc2 BA=G2|B2A4A2|=gf
W: A A A G A A A G A
e2 a2a2|=gfe2 a2e3dc2 A2A2|Bcd3B=G2|B2A3Bc2|d2e2 a2e3dc2 BA=G2|B2A4-A2|e2
W: A A A G A A A G A
A3Bc2|d2e2 a A A G A
A3Bc2|d2e2 a